X:1
T:Ramnee Ceilidh
L:1/8
Q:1/4=120
M:4/4
K:D
|: dD BD A2 BA | f2 ef e2 de | f2 af e2 fe | d3 d2 B AB | 
dD BD A2 BA | f2 ef e2 de | f2 af e2 fe |1 d3 d2 B AB :|2 d3 d2 A Bd |
|: f3 A Bd (e2 | ed)d/d/ ded Bd | f3 A Bd (e2 | eg)f e d2 e2 | 
f3 A Bd (e2 | ed) d/d/d ed Bd | f2 af e2 fe |1 dB AB dA Bd :|2 dB AB d4 |] 


